X: 1
T: Tulipunaruusut
T: Flaming Red Roses
M: C|
L: 1/4
K: Dm
[|"Dm"D3 E | F2A2 | "A7"GF ^CE | "Dm"D2 z2 \
| "Gm"G3 A | B2 d2 | "A7"^cB AG | "Dm"A2 "D7"z2 |
| "Gm"Bc/B/ GA | "Gm"Bd cB | "Dm"AB/A/ ^GA | BA FD \
| "Gm"E2 B2 | "A7"A2 ^C2 | "Dm"ED "A7"D^C | "Dm"D2 z2 |]
|:"D7"d d3 | D2 c2 | "Gm"cB "D7"BA | "Gm"B2 z2 \
| "C7"c c3 | C2 B2 | "F"BA "C7"A^G | "F"A2 "A7"z2 |
| "Dm"FG/F/ DE | FG AF | "A7"EF/E/ ^CD | EF GE \
| "Dm"FG/F/ DF | "A7"AG F^C | "Dm"ED "A7"D^C | "Dm"D2 z2 :|
